svg/football_helmet.svg

<svg xmlns="http://www.w3.org/2000/svg" width="24" height="24" viewBox="0 0 24 24"><title>football_helmet</title><path d="M13.5 12a1.5 1.5 0 1 0 1.5 1.5 1.54 1.54 0 0 0-1.5-1.5m0-9a8.27 8.27 0 0 1 8.5 8 10.64 10.64 0 0 1-.9 5c-4.1 0-5.1 4-8.6 4-2.2 0-3.2-1.7-3.4-4h-.9L7 20.3a1 1 0 0 1-1.1.7H3a1 1 0 0 1 0-2v-3a1 1 0 0 1 0-2h3.8l.5-1.6a3.92 3.92 0 0 0-1.8-.4h-.4L5 11a8.27 8.27 0 0 1 8.5-8M5 16v3h.3l.9-3z"/><path fill="none" d="M0 0h24v24H0z"/></svg>

<svg xmlns="http://www.w3.org/2000/svg" width="24" height="24" viewBox="0 0 24 24">
  <title>football_helmet</title>
  <path d="M13.5,12A1.5,1.5,0,1,0,15,13.5,1.54,1.54,0,0,0,13.5,12m0-9A8.27,8.27,0,0,1,22,11a10.64,10.64,0,0,1-.9,5c-4.1,0-5.1,4-8.6,4-2.2,0-3.2-1.7-3.4-4H8.2L7,20.3a1,1,0,0,1-1.1.7H3a1,1,0,0,1,0-2V16a1,1,0,0,1,0-2H6.8l.5-1.6A3.92,3.92,0,0,0,5.5,12H5.1L5,11a8.27,8.27,0,0,1,8.5-8M5,16v3h.3l.9-3Z"/>
  <rect width="24" height="24" fill="none"/>
</svg>
